grammarly.svg

<svg viewBox="0 0 24 24" xmlns="http://www.w3.org/2000/svg"><path d="M11.4095 0.0284062C5.48836 0.51447 0.674661 5.37235 0.321161 11.3377C-0.0765275 18.2752 5.40274 23.8897 12.2518 23.8897C15.831 23.8897 19.0623 22.3377 21.2275 19.7748L20.9513 21.2385L20.9513 22.5641C20.9513 23.2269 21.3932 23.84 22.056 23.9726C22.9397 24.1493 23.6992 23.4451 23.6992 22.6055L23.6992 14.776L16.2701 14.776C15.4306 14.776 14.7705 15.5355 14.9031 16.4193C15.0357 17.0821 15.6488 17.524 16.3116 17.524L18.4381 17.524L19.6809 17.3444C17.6924 20.2608 14.2817 21.5809 10.5258 20.9623C7.4768 20.4762 4.87802 18.4077 3.77332 15.5355C1.25463 8.99574 6.02137 2.7211 12.2518 2.72109C15.4775 2.72109 18.3497 4.62116 19.9847 6.91892L19.9847 6.96035C20.4266 7.57897 21.2716 7.76125 21.8903 7.31937C22.4647 6.92168 22.6304 6.11525 22.2769 5.49663C20.0233 1.96162 15.9608-0.280907 11.4095 0.0284062Z" fill="#2bb673"/></svg>

<svg viewBox="0 0 24 24" xmlns="http://www.w3.org/2000/svg"><path d="M11.41.028C5.487.514.675 5.372.32 11.338c-.398 6.937 5.082 12.552 11.93 12.552 3.58 0 6.811-1.552 8.976-4.115l-.276 1.463v1.326c0 .663.442 1.276 1.105 1.409.884.176 1.643-.528 1.643-1.367v-7.83H16.27c-.84 0-1.5.76-1.367 1.643.133.663.746 1.105 1.409 1.105h2.126l1.243-.18c-1.989 2.917-5.4 4.237-9.155 3.618-3.05-.486-5.648-2.554-6.753-5.426C1.255 8.995 6.021 2.72 12.252 2.72c3.225 0 6.098 1.9 7.733 4.198v.041c.442.619 1.287.801 1.905.36.575-.398.74-1.205.387-1.823A11.878 11.878 0 0 0 11.409.028Z" fill="#2bb673"/></svg>
